!!!!SEGMENT: pl-kk--kk-i-382--042-004_anonim--msza-na-4-meskie-glosy-zebrana-agnus-dei.krn
!!!cenid: 18xx:1536
!!!COM: Anonim
!!!COM-rismid: pe30004985
!!!CDT:
!!!CNT:
!!!OPR: Msza na 4 męskie głosy zebrana
!!!OTL: Agnus Dei
!!!OMV: 004
!!!PDT:
!!!AGN: Sacred; Mass
!!!SMS-siglum: PL-Kk
!!!SMS-shelfmark: Kk.I.382
!!!SMS-shelfwork: 028-004 M
!!!SMS-variant:
!!!SMS-altvar:
!!!NIFC-rismid: 1001140226
!!!system-decoration: [(s1,s2,s3,s4)]
**kern	**text	**kern	**text	**dynam	**kern	**text	**kern	**text
*part4	*part4	*part3	*part3	*part3	*part2	*part2	*part1	*part1
*staff4	*staff4	*staff3	*staff3	*	*staff2	*staff2	*staff1	*staff1
*Ibass	*	*Itenor	*	*	*Ialto	*	*Itenor	*
*I"Basso II	*	*I"Tenore II	*	*	*I"Alto vel Basso I	*	*I"Soprano vel Tenore I	*
*I'B 2	*	*I'T 2	*	*	*I'A vel B 1	*	*I'S vel T 1	*
*clefF4	*	*clefG2	*	*	*clefF4	*	*clefG2	*
*k[f#c#]	*	*k[f#c#]	*	*	*k[f#c#]	*	*k[f#c#]	*
*D:	*	*D:	*	*	*D:	*	*D:	*
*M4/4	*	*M4/4	*	*	*M4/4	*	*M4/4	*
*met(c)	*	*met(c)	*	*	*met(c)	*	*met(c)	*
*>[A,A,B]	*	*>[A,A,B]	*	*	*>[A,A,B]	*	*>[A,A,B]	*
=1	=1	=1	=1	=1	=1	=1	=1	=1
*>A	*	*>A	*	*	*>A	*	*>A	*
*2\right	*	*2\right	*	*	*2\right	*	*2\right	*
!LO:TX:t=P:problem:all\right:global	!	!LO:TX:t=P:problem:all\right:global	!	!	!LO:TX:t=P:problem:all\right:global	!	!LO:TX:t=P:problem:all\right:global	!
!	!	!LO:SIC:v:o=Agnus.:t=w źródle 'Agnus.' znajduje się przed kluczem i oznaczeniem metrum	!	!	!LO:SIC:v:o=Agnus Dei.:t=w źródle 'Agnus Dei.' znajduje się przed kluczem i oznaczeniem metrum	!	!	!
!LO:TX:a:Bi:t=Agnus Dei.:rj	!	!	!	!	!	!	!LO:TX:a:Bi:t=Agnus Dei.:rj	!
2D\	A-	2a/	A-	.	2F#\	A-	2a/	A-
2D\	-gnus	2a/	-gnus	.	2F#\	-gnus	2dd\	-gnus
=2	=2	=2	=2	=2	=2	=2	=2	=2
2E\	De-	2a/	De-	.	2G\	De-	2dd\	De-
4E\	-i	4a/	-i	.	4G\	-i	4cc#\	-i
4E\	qui	4a/	qui	.	4G\	qui	4cc#\	qui
=3	=3	=3	=3	=3	=3	=3	=3	=3
4D\	tol-	4dd\	tol-	.	4A\	tol-	4ff#\	tol-
8AA/	-lis	8cc#\	-lis	.	8G\	-lis	8ee\	-lis
!	!	!LO:TX:a:i:t=Czyżyk	!	!	!	!	!	!
8AA/	pec-	8cc#\	pec-	.	8G\	pec-	8ee\	pec-
4BB/	-ca-	4b\	-ca-	.	4F#\	-ca-	4dd\	-ca-
4GG/	-ta	4b\	-ta	.	4G\	-ta	4ee\	-ta
!	!	!LO:LB:g=original	!	!	!LO:LB:g=original	!	!	!
=4	=4	=4	=4	=4	=4	=4	=4	=4
!LO:TX:a:t=P:w źródle nad tym taktem notatki dopisane ołówkiem:problem	!	!	!	!	!	!	!	!
2AA/	mun-	2a/	mun-	.	(<4F#\	mun-	2dd\	mun-
.	.	.	.	.	4Fn\)	.	.	.
4AA/	-di	4a/	-di	.	4E\	-di	4cc#\	-di
4r	.	4r	.	.	4r	.	4r	.
!LO:LB:g=original	!	!	!	!	!	!	!LO:LB:g=original	!
=5	=5	=5	=5	=5	=5	=5	=5	=5
!	!	!	!	!LO:DY:a:rj	!	!	!	!
2D\	mi-	2a/	mi-	p	2F#X\	mi-	2a/	mi-
2C#/	-se-	2a/	-se-	.	2E\	-se-	2a/	-se-
=6	=6	=6	=6	=6	=6	=6	=6	=6
2BB/	-re-	2g#X/	-re-	.	2E\	-re-	2dd\	-re-
2AA/	-re	2a/	-re	.	2E\	-re	2cc#\	-re
=7	=7	=7	=7	=7	=7	=7	=7	=7
2D\	mi-	2b\	mi-	.	2F#\	mi-	2b\	mi-
2C#/	-se-	2a#X/	-se-	.	2F#\	-se-	2cc#\	-se-
=8	=8	=8	=8	=8	=8	=8	=8	=8
(>4C#/	-re-	(<4a#X/	-re-	.	2F#\	-re-	(<4ee\	-re-
4BB/)	.	4b/)	.	.	.	.	4dd\)	.
2BB/	-re	2b\	-re	.	2F#\	-re	2dd\	-re
!	!	!LO:LB:g=original	!	!	!LO:LB:g=original	!	!	!
=9	=9	=9	=9	=9	=9	=9	=9	=9
4D\	mi-	4b\	mi-	.	4F#\	mi-	4b\	mi-
4C#/	-se-	4a#X/	-se-	.	4F#\	-se-	4cc#\	-se-
4BB/	-re-	4b\	-re-	.	4F#\	-re-	4dd\	-re-
4D\	-re	4f#/	-re	.	4D\	-re	4b\	-re
!LO:LB:g=original	!	!	!	!	!	!	!	!
=10	=10	=10	=10	=10	=10	=10	=10	=10
(<2C#/	no-	[<2e/	no-	.	(<2C#/	no-	(<2a/	no-
2E\)	.	2e/]	.	.	2BB/)	.	2g#X/)	.
!	!	!	!	!	!	!	!LO:LB:g=original	!
=11	=11	=11	=11	=11	=11	=11	=11	=11
2.AA/	-bis	2.e/	-bis	.	2.C#/	-bis	2.a/	-bis
4r	.	4r	.	.	4r	.	4r	.
=12:|!	=12:|!	=12:|!	=12:|!	=12:|!	=12:|!	=12:|!	=12:|!	=12:|!
*>B	*	*>B	*	*	*>B	*	*>B	*
4AA/	Do-	4a/	Do-	.	4G\	Do-	4ee\	Do-
4AA/	-na	4a/	-na	.	4G\	-na	4ee\	-na
4AA/	no-	4a/	no-	.	4E\	no-	4cc#\	no-
4AA/	-bis	4a/	-bis	.	4E\	-bis	4cc#\	-bis
!	!	!LO:LB:g=original	!	!	!	!	!	!
=13	=13	=13	=13	=13	=13	=13	=13	=13
2D\	pa-	(<4f#/	pa-	.	(<4D\	pa-	(>4dd\	pa-
.	.	4a/)	.	.	4F#\)	.	4a/)	.
2D\	-cem	2a/	-cem	.	2F#\	-cem	2a/	-cem
!	!	!	!	!	!LO:LB:g=original	!	!	!
=14	=14	=14	=14	=14	=14	=14	=14	=14
2AA/	do-	2a/	do-	.	(<4C#/	Do-	(<4a/	do-
.	.	.	.	.	4G\)	.	4ee\)	.
2AA/	-na	2a/	-na	.	(>4F#\	-na	(>4dd\	-na
.	.	.	.	.	4E\)	.	4cc#\)	.
!LO:LB:g=original	!	!	!	!	!	!	!	!
=15	=15	=15	=15	=15	=15	=15	=15	=15
2D\	pa-	(<4f#/	pa-	.	(<4D\	pa-	(>4dd\	pa-
.	.	4a/)	.	.	4F#\)	.	4a/)	.
2D\	-cem	2a/	-cem	.	2F#\	-cem	2a/	-cem
!	!	!	!	!	!	!	!LO:LB:g=original	!
=16	=16	=16	=16	=16	=16	=16	=16	=16
4F#\	do-	4dd\	Do-	.	4A\	do-	4dd\	do-
4F#\	-na	4dd\	-na	.	4A\	-na	4dd\	-na
4E\	no-	4cc#\	no-	.	4A\	no-	4ee\	no-
4D\	-bis	4dd\	-bis	.	4A\	-bis	4ff#\	-bis
!	!	!LO:LB:g=original	!	!	!	!	!	!
=17	=17	=17	=17	=17	=17	=17	=17	=17
2C#/	pa-	2ee\	pa-	.	2A\	pa-	2gg\	pa-
2D\	-cem	2dd\	-cem	.	2A\	-cem	2ff#\	-cem
!	!	!	!	!	!LO:LB:g=original	!	!	!
=18	=18	=18	=18	=18	=18	=18	=18	=18
2AA/	do-	(>4dd\	do-	.	2A\	do-	(>4ff#\	do-
.	.	4cc#\)	.	.	.	.	4ee\)	.
2AA/	-na	2cc#\	-na	.	2A\	-na	2ee\	-na
=19	=19	=19	=19	=19	=19	=19	=19	=19
4D\	do-	4dd\	Do-	.	4A\	do-	4ff#\	do-
4AA/	-na	4cc#\	-na	.	4G\	-na	4ee\	-na
4BB/	no-	4b\	no-	.	4F#\	no-	4dd\	no-
4GG/	-bis	4b\	-bis	.	4G\	-bis	4ee\	-bis
!LO:LB:g=original	!	!	!	!	!	!	!	!
=20	=20	=20	=20	=20	=20	=20	=20	=20
1AA	pa-	[<2a/	pa-	.	(>2F#\	pa-	(>2dd\	pa-
.	.	2a/]	.	.	2E\)	.	2cc#\)	.
=21	=21	=21	=21	=21	=21	=21	=21	=21
2D\	-cem.	2a;>/	-cem	.	2F#\	-cem.	2dd\	-cem
2r	.	4r	.	.	2r	.	2r	.
!	!	!LO:TX:b:Bi:t=Dnia 12/5 1891 Tomasz Flasza.	!	!	!	!	!	!
.	.	4r	.	.	.	.	.	.
==	==	==	==	==	==	==	==	==
*-	*-	*-	*-	*-	*-	*-	*-	*-
!!title: @{OTL};
!!!RDF**kern: > = above
!!!RDF**kern: < = below
!!!EED: Wojciech Jakubiak-Danek
!!!EST: 2021-02-09
!!!URL-scan: http://repozytorium.nifc.pl/skany/pl-kk-nut--i-382
!!!ONB-nifc: UWAGA: obsada: S/T 1, T 2, A/B 1, B 2. Skan 0036, 0106-0107, 0179-0180, 0255-0256.
!!!AIN: 1 alto 1 bass 2 tenor
!!!ENC: Marcin Jachim
!!!END: 2021-01-31
